content/blogs/regnskap/hva-er-kasseoppgjor/kasseoppgjor-avvik.svg

<svg xmlns="http://www.w3.org/2000/svg" width="800" height="600"><defs><linearGradient id="a" x1="0%" x2="100%" y1="0%" y2="100%"><stop offset="0%" style="stop-color:#f8f9fa;stop-opacity:1"/><stop offset="100%" style="stop-color:#e9ecef;stop-opacity:1"/></linearGradient><linearGradient id="b" x1="0%" x2="100%" y1="0%" y2="100%"><stop offset="0%" style="stop-color:#27ae60;stop-opacity:1"/><stop offset="100%" style="stop-color:#229954;stop-opacity:1"/></linearGradient><linearGradient id="c" x1="0%" x2="100%" y1="0%" y2="100%"><stop offset="0%" style="stop-color:#e74c3c;stop-opacity:1"/><stop offset="100%" style="stop-color:#c0392b;stop-opacity:1"/></linearGradient></defs><path fill="url(#a)" stroke="#dee2e6" stroke-width="2" d="M0 0h800v600H0z"/><text x="400" y="30" fill="#2c3e50" font-family="Arial, sans-serif" font-size="24" font-weight="bold" text-anchor="middle">
    Avvikshåndtering i Kasseoppgjør
  </text><rect width="200" height="100" x="300" y="70" fill="#ecf0f1" stroke="#bdc3c7" stroke-width="2" rx="10"/><text x="400" y="95" fill="#2c3e50" font-family="Arial, sans-serif" font-size="16" font-weight="bold" text-anchor="middle">
    SAMMENLIGNING
  </text><rect width="70" height="25" x="320" y="110" fill="#3498db" stroke="#2980b9" rx="3"/><text x="355" y="127" fill="#fff" font-family="Arial, sans-serif" font-size="11" font-weight="bold" text-anchor="middle">
    Fysisk: 15.450
  </text><rect width="70" height="25" x="410" y="110" fill="#9b59b6" stroke="#8e44ad" rx="3"/><text x="445" y="127" fill="#fff" font-family="Arial, sans-serif" font-size="11" font-weight="bold" text-anchor="middle">
    System: 15.200
  </text><text x="400" y="155" fill="#2c3e50" font-family="Arial, sans-serif" font-size="14" font-weight="bold" text-anchor="middle">
    Differanse: +250 kr
  </text><rect width="300" height="350" x="50" y="200" fill="url(#b)" stroke="#229954" stroke-width="2" rx="10"/><text x="200" y="230" fill="#fff" font-family="Arial, sans-serif" font-size="18" font-weight="bold" text-anchor="middle">
    OVERSKUDD (+)
  </text><text x="200" y="250" fill="#fff" font-family="Arial, sans-serif" font-size="12" text-anchor="middle">
    Mer kontanter enn forventet
  </text><circle cx="200" cy="280" r="20" fill="#fff" stroke="#229954" stroke-width="2"/><text x="200" y="290" fill="#27ae60" font-family="Arial, sans-serif" font-size="24" font-weight="bold" text-anchor="middle">+</text><text x="70" y="320" fill="#fff" font-family="Arial, sans-serif" font-size="14" font-weight="bold">Mulige årsaker:</text><text x="70" y="340" fill="#fff" font-family="Arial, sans-serif" font-size="12">• Feil i registrering av uttak</text><text x="70" y="355" fill="#fff" font-family="Arial, sans-serif" font-size="12">• Glemt registrering av innskudd</text><text x="70" y="370" fill="#fff" font-family="Arial, sans-serif" font-size="12">• Feil i vekslepenger</text><text x="70" y="385" fill="#fff" font-family="Arial, sans-serif" font-size="12">• Dobbeltregistrering av uttak</text><text x="70" y="415" fill="#fff" font-family="Arial, sans-serif" font-size="14" font-weight="bold">Kontrollhandlinger:</text><text x="70" y="435" fill="#fff" font-family="Arial, sans-serif" font-size="12">✓ Kontroller alle uttak i dag</text><text x="70" y="450" fill="#fff" font-family="Arial, sans-serif" font-size="12">✓ Verifiser vekslepenger</text><text x="70" y="465" fill="#fff" font-family="Arial, sans-serif" font-size="12">✓ Gjennomgå innskudd</text><text x="70" y="480" fill="#fff" font-family="Arial, sans-serif" font-size="12">✓ Kontroller startkasse</text><text x="70" y="495" fill="#fff" font-family="Arial, sans-serif" font-size="12">✓ Dokumenter funn</text><rect width="300" height="350" x="450" y="200" fill="url(#c)" stroke="#c0392b" stroke-width="2" rx="10"/><text x="600" y="230" fill="#fff" font-family="Arial, sans-serif" font-size="18" font-weight="bold" text-anchor="middle">
    UNDERSKUDD (-)
  </text><text x="600" y="250" fill="#fff" font-family="Arial, sans-serif" font-size="12" text-anchor="middle">
    Mindre kontanter enn forventet
  </text><circle cx="600" cy="280" r="20" fill="#fff" stroke="#c0392b" stroke-width="2"/><text x="600" y="290" fill="#e74c3c" font-family="Arial, sans-serif" font-size="24" font-weight="bold" text-anchor="middle">-</text><text x="470" y="320" fill="#fff" font-family="Arial, sans-serif" font-size="14" font-weight="bold">Mulige årsaker:</text><text x="470" y="340" fill="#fff" font-family="Arial, sans-serif" font-size="12">• Feil i kontanttelling</text><text x="470" y="355" fill="#fff" font-family="Arial, sans-serif" font-size="12">• Uregistrerte uttak</text><text x="470" y="370" fill="#fff" font-family="Arial, sans-serif" font-size="12">• Tyveri eller svinn</text><text x="470" y="385" fill="#fff" font-family="Arial, sans-serif" font-size="12">• Feil vekslepenger</text><text x="470" y="400" fill="#fff" font-family="Arial, sans-serif" font-size="12">• Registreringsfeil</text><text x="470" y="430" fill="#fff" font-family="Arial, sans-serif" font-size="14" font-weight="bold">Kontrollhandlinger:</text><text x="470" y="450" fill="#fff" font-family="Arial, sans-serif" font-size="12">✓ Tell kontanter på nytt</text><text x="470" y="465" fill="#fff" font-family="Arial, sans-serif" font-size="12">✓ Kontroller alle transaksjoner</text><text x="470" y="480" fill="#fff" font-family="Arial, sans-serif" font-size="12">✓ Verifiser uttak og innskudd</text><text x="470" y="495" fill="#fff" font-family="Arial, sans-serif" font-size="12">✓ Rapporter til ledelse</text><text x="470" y="510" fill="#fff" font-family="Arial, sans-serif" font-size="12">✓ Vurder sikkerhetstiltak</text><path fill="none" stroke="#27ae60" stroke-width="3" d="m350 180-150 10 10-10m-10 10 10 10"/><path fill="none" stroke="#e74c3c" stroke-width="3" d="m450 180 150 10-10-10m10 10-10 10"/><rect width="400" height="25" x="200" y="570" fill="#34495e" stroke="#2c3e50" rx="5"/><text x="400" y="587" fill="#fff" font-family="Arial, sans-serif" font-size="12" font-weight="bold" text-anchor="middle">
    ALLE AVVIK MÅ DOKUMENTERES OG FØLGES OPP
  </text></svg>

<svg width="800" height="600" xmlns="http://www.w3.org/2000/svg">
  <defs>
    <linearGradient id="bgGradient" x1="0%" y1="0%" x2="100%" y2="100%">
      <stop offset="0%" style="stop-color:#f8f9fa;stop-opacity:1" />
      <stop offset="100%" style="stop-color:#e9ecef;stop-opacity:1" />
    </linearGradient>
    <linearGradient id="plusGradient" x1="0%" y1="0%" x2="100%" y2="100%">
      <stop offset="0%" style="stop-color:#27ae60;stop-opacity:1" />
      <stop offset="100%" style="stop-color:#229954;stop-opacity:1" />
    </linearGradient>
    <linearGradient id="minusGradient" x1="0%" y1="0%" x2="100%" y2="100%">
      <stop offset="0%" style="stop-color:#e74c3c;stop-opacity:1" />
      <stop offset="100%" style="stop-color:#c0392b;stop-opacity:1" />
    </linearGradient>
  </defs>
  

  <rect width="800" height="600" fill="url(#bgGradient)" stroke="#dee2e6" stroke-width="2"/>
  

  <text x="400" y="30" font-family="Arial, sans-serif" font-size="24" font-weight="bold" text-anchor="middle" fill="#2c3e50">
    Avvikshåndtering i Kasseoppgjør
  </text>
  

  <rect x="300" y="70" width="200" height="100" fill="#ecf0f1" stroke="#bdc3c7" stroke-width="2" rx="10"/>
  <text x="400" y="95" font-family="Arial, sans-serif" font-size="16" font-weight="bold" text-anchor="middle" fill="#2c3e50">
    SAMMENLIGNING
  </text>
  

  <rect x="320" y="110" width="70" height="25" fill="#3498db" stroke="#2980b9" stroke-width="1" rx="3"/>
  <text x="355" y="127" font-family="Arial, sans-serif" font-size="11" font-weight="bold" text-anchor="middle" fill="white">
    Fysisk: 15.450
  </text>
  

  <rect x="410" y="110" width="70" height="25" fill="#9b59b6" stroke="#8e44ad" stroke-width="1" rx="3"/>
  <text x="445" y="127" font-family="Arial, sans-serif" font-size="11" font-weight="bold" text-anchor="middle" fill="white">
    System: 15.200
  </text>
  

  <text x="400" y="155" font-family="Arial, sans-serif" font-size="14" font-weight="bold" text-anchor="middle" fill="#2c3e50">
    Differanse: +250 kr
  </text>
  

  <rect x="50" y="200" width="300" height="350" fill="url(#plusGradient)" stroke="#229954" stroke-width="2" rx="10"/>
  <text x="200" y="230" font-family="Arial, sans-serif" font-size="18" font-weight="bold" text-anchor="middle" fill="white">
    OVERSKUDD (+)
  </text>
  <text x="200" y="250" font-family="Arial, sans-serif" font-size="12" text-anchor="middle" fill="white">
    Mer kontanter enn forventet
  </text>
  

  <circle cx="200" cy="280" r="20" fill="white" stroke="#229954" stroke-width="2"/>
  <text x="200" y="290" font-family="Arial, sans-serif" font-size="24" font-weight="bold" text-anchor="middle" fill="#27ae60">+</text>
  

  <text x="70" y="320" font-family="Arial, sans-serif" font-size="14" font-weight="bold" fill="white">Mulige årsaker:</text>
  <text x="70" y="340" font-family="Arial, sans-serif" font-size="12" fill="white">• Feil i registrering av uttak</text>
  <text x="70" y="355" font-family="Arial, sans-serif" font-size="12" fill="white">• Glemt registrering av innskudd</text>
  <text x="70" y="370" font-family="Arial, sans-serif" font-size="12" fill="white">• Feil i vekslepenger</text>
  <text x="70" y="385" font-family="Arial, sans-serif" font-size="12" fill="white">• Dobbeltregistrering av uttak</text>
  
  <text x="70" y="415" font-family="Arial, sans-serif" font-size="14" font-weight="bold" fill="white">Kontrollhandlinger:</text>
  <text x="70" y="435" font-family="Arial, sans-serif" font-size="12" fill="white">✓ Kontroller alle uttak i dag</text>
  <text x="70" y="450" font-family="Arial, sans-serif" font-size="12" fill="white">✓ Verifiser vekslepenger</text>
  <text x="70" y="465" font-family="Arial, sans-serif" font-size="12" fill="white">✓ Gjennomgå innskudd</text>
  <text x="70" y="480" font-family="Arial, sans-serif" font-size="12" fill="white">✓ Kontroller startkasse</text>
  <text x="70" y="495" font-family="Arial, sans-serif" font-size="12" fill="white">✓ Dokumenter funn</text>
  

  <rect x="450" y="200" width="300" height="350" fill="url(#minusGradient)" stroke="#c0392b" stroke-width="2" rx="10"/>
  <text x="600" y="230" font-family="Arial, sans-serif" font-size="18" font-weight="bold" text-anchor="middle" fill="white">
    UNDERSKUDD (-)
  </text>
  <text x="600" y="250" font-family="Arial, sans-serif" font-size="12" text-anchor="middle" fill="white">
    Mindre kontanter enn forventet
  </text>
  

  <circle cx="600" cy="280" r="20" fill="white" stroke="#c0392b" stroke-width="2"/>
  <text x="600" y="290" font-family="Arial, sans-serif" font-size="24" font-weight="bold" text-anchor="middle" fill="#e74c3c">-</text>
  

  <text x="470" y="320" font-family="Arial, sans-serif" font-size="14" font-weight="bold" fill="white">Mulige årsaker:</text>
  <text x="470" y="340" font-family="Arial, sans-serif" font-size="12" fill="white">• Feil i kontanttelling</text>
  <text x="470" y="355" font-family="Arial, sans-serif" font-size="12" fill="white">• Uregistrerte uttak</text>
  <text x="470" y="370" font-family="Arial, sans-serif" font-size="12" fill="white">• Tyveri eller svinn</text>
  <text x="470" y="385" font-family="Arial, sans-serif" font-size="12" fill="white">• Feil vekslepenger</text>
  <text x="470" y="400" font-family="Arial, sans-serif" font-size="12" fill="white">• Registreringsfeil</text>
  
  <text x="470" y="430" font-family="Arial, sans-serif" font-size="14" font-weight="bold" fill="white">Kontrollhandlinger:</text>
  <text x="470" y="450" font-family="Arial, sans-serif" font-size="12" fill="white">✓ Tell kontanter på nytt</text>
  <text x="470" y="465" font-family="Arial, sans-serif" font-size="12" fill="white">✓ Kontroller alle transaksjoner</text>
  <text x="470" y="480" font-family="Arial, sans-serif" font-size="12" fill="white">✓ Verifiser uttak og innskudd</text>
  <text x="470" y="495" font-family="Arial, sans-serif" font-size="12" fill="white">✓ Rapporter til ledelse</text>
  <text x="470" y="510" font-family="Arial, sans-serif" font-size="12" fill="white">✓ Vurder sikkerhetstiltak</text>
  

  <path d="M 350 180 L 200 190 L 210 180 M 200 190 L 210 200" stroke="#27ae60" stroke-width="3" fill="none"/>
  <path d="M 450 180 L 600 190 L 590 180 M 600 190 L 590 200" stroke="#e74c3c" stroke-width="3" fill="none"/>
  

  <rect x="200" y="570" width="400" height="25" fill="#34495e" stroke="#2c3e50" stroke-width="1" rx="5"/>
  <text x="400" y="587" font-family="Arial, sans-serif" font-size="12" font-weight="bold" text-anchor="middle" fill="white">
    ALLE AVVIK MÅ DOKUMENTERES OG FØLGES OPP
  </text>
</svg>
